app/dist/common/images/meritage-homes.svg

<svg height="18" width="18" xmlns="http://www.w3.org/2000/svg"><path d="m0 0h18v18h-18z" fill="#005596"/><path d="m12.978 5.56v-1.499h-1.975v.807l-2.325-.868-5.678 1.79h1.513l4.154-1.253 5.148 1.918h1.458l-2.295-.896zm-1.411-.96h.847v.808l-.847-.391z" fill="#94c947"/><path d="m5.725 6.455h1.635l1.28 3.355 1.345-3.355h1.634l.961 6.545h-1.634l-.448-3.895h-.032l-1.537 3.895h-.641l-1.474-3.895-.544 3.895h-1.634l1.09-6.545z" fill="#fff"/></svg>

<!-- by TradingView --><svg width="18" height="18" xmlns="http://www.w3.org/2000/svg"><path fill="#005596" d="M0 0h18v18H0z"/><path d="M12.978 5.56V4.061h-1.975v.807L8.678 4 3 5.79h1.513l4.154-1.253 5.148 1.918h1.458l-2.295-.896zm-1.411-.96h.847v.808l-.847-.391V4.6z" fill="#94C947"/><path d="M5.725 6.455H7.36L8.64 9.81l1.345-3.355h1.634L12.58 13h-1.634l-.448-3.895h-.032L8.929 13h-.641L6.814 9.105 6.27 13H4.636l1.09-6.545z" fill="#fff"/></svg>
